/* XPM */
static char *_07e7166a3c44b249f29d596493e031eUAX047Ev4hJjG4hn[] = {
/* columns rows colors chars-per-pixel */
"128 128 254 2 ",
"   c #080707",
".  c #0A0807",
"X  c #0C0B0B",
"o  c #130D0C",
"O  c #190E0D",
"+  c #16110E",
"@  c #1A120F",
"#  c #0C0B16",
"$  c #140E14",
"%  c #151211",
"&  c #1B1412",
"*  c #1E1914",
"=  c #16141A",
"-  c #1C151A",
";  c #1D1A1B",
":  c #23140F",
">  c #2B0B10",
",  c #221612",
"<  c #261615",
"1  c #231A15",
"2  c #2B1B15",
"3  c #241D1A",
"4  c #2A1E19",
"5  c #331C16",
"6  c #361E18",
"7  c #27201A",
"8  c #2C221B",
"9  c #33241C",
"0  c #3B231C",
"q  c #35291E",
"w  c #39291D",
"e  c #190C27",
"r  c #150D2B",
"t  c #1B0D2A",
"y  c #1A1629",
"u  c #1B0F32",
"i  c #1C1234",
"p  c #1C1933",
"a  c #1C133A",
"s  c #250C28",
"d  c #251A26",
"f  c #341527",
"g  c #260F33",
"h  c #231135",
"j  c #281537",
"k  c #371839",
"l  c #1F2221",
"z  c #2C2523",
"x  c #292626",
"c  c #322522",
"v  c #342A23",
"b  c #3B2C23",
"n  c #3A2A27",
"m  c #352C2A",
"M  c #3A3129",
"N  c #3C322C",
"B  c #322D32",
"V  c #3C3432",
"C  c #3A3736",
"Z  c #571019",
"A  c #43251C",
"S  c #48281E",
"D  c #501229",
"F  c #441C38",
"G  c #74132C",
"H  c #432C24",
"J  c #4B2C23",
"K  c #442B28",
"L  c #532D26",
"P  c #43332B",
"I  c #483529",
"U  c #553327",
"Y  c #54332A",
"T  c #5B352A",
"R  c #5D392D",
"E  c #4B2436",
"W  c #562736",
"Q  c #433533",
"!  c #443A34",
"~  c #4B3C34",
"^  c #483B39",
"/  c #573A34",
"(  c #64392D",
")  c #732932",
"_  c #643D32",
"`  c #6A3C33",
"'  c #753A33",
"]  c #484339",
"[  c #4C433C",
"{  c #57443A",
"}  c #654336",
"|  c #6B4335",
" . c #63453C",
".. c #6C4539",
"X. c #6D4A3B",
"o. c #774739",
"O. c #734C3C",
"+. c #7A513E",
"@. c #372A43",
"#. c #503C43",
"$. c #3F4843",
"%. c #4A4645",
"&. c #574945",
"*. c #5A534B",
"=. c #4F5250",
"-. c #595755",
";. c #674C45",
":. c #744D41",
">. c #794F44",
",. c #67554B",
"<. c #755143",
"1. c #7C5344",
"2. c #7C5649",
"3. c #7A584A",
"4. c #684553",
"5. c #645B54",
"6. c #685B56",
"7. c #785954",
"8. c #59625D",
"9. c #78604E",
"0. c #6A625B",
"q. c #776459",
"w. c #596B68",
"e. c #6A6866",
"r. c #766C67",
"t. c #76726B",
"y. c #7B726C",
"u. c #6A6E70",
"i. c #787676",
"p. c #81101F",
"a. c #941027",
"s. c #A50F26",
"d. c #A81126",
"f. c #B4152A",
"g. c #8A353A",
"h. c #84463C",
"j. c #933B43",
"k. c #884A43",
"l. c #944649",
"z. c #835445",
"x. c #895547",
"c. c #835946",
"v. c #845B4B",
"b. c #8A5C4C",
"n. c #945A4C",
"m. c #865D53",
"M. c #985D52",
"N. c #A5575A",
"B. c #85614E",
"V. c #8C614D",
"C. c #8C6353",
"Z. c #886558",
"A. c #916451",
"S. c #936553",
"D. c #996557",
"F. c #946A55",
"G. c #9A6A56",
"H. c #946B5B",
"J. c #9C6D5B",
"K. c #95705E",
"L. c #9D715D",
"P. c #A36A5A",
"I. c #A3725D",
"U. c #A8735D",
"Y. c #AD5C63",
"T. c #8A6C63",
"R. c #996E62",
"E. c #85766B",
"W. c #947263",
"Q. c #9C7363",
"!. c #9B7868",
"~. c #9D7B6A",
"^. c #847B76",
"/. c #A86D62",
"(. c #A37464",
"). c #AA7464",
"_. c #A37966",
"`. c #AB7A65",
"'. c #A67669",
"]. c #A47C6B",
"[. c #AC7C6B",
"{. c #B17866",
"}. c #B3706C",
"|. c #B27D6B",
" X c #AA7E70",
".X c #558B72",
"XX c #718D77",
"oX c #89837B",
"OX c #8F8A78",
"+X c #A5816E",
"@X c #AB826E",
"#X c #B2826E",
"$X c #B5876F",
"%X c #A68271",
"&X c #AC8473",
"*X c #AE8976",
"=X c #B38573",
"-X c #BB8574",
";X c #B48975",
":X c #BA8976",
">X c #B88778",
",X c #B58B7A",
"<X c #BA8C7B",
"1X c #BC917E",
"2X c #C18D7E",
"3X c #7B7D81",
"4X c #8B7E83",
"5X c #7A8A84",
"6X c #6AA88B",
"7X c #74C0A0",
"8X c #898788",
"9X c #938986",
"0X c #99938B",
"qX c #8D8F94",
"wX c #989697",
"eX c #BB8F81",
"rX c #A0998F",
"tX c #BC9283",
"yX c #BD9487",
"uX c #A29B93",
"iX c #A49C98",
"pX c #93A49A",
"aX c #AAA39B",
"sX c #B1A89F",
"dX c #8D9CA3",
"fX c #9B9CA3",
"gX c #9CA2A9",
"hX c #8ABDA1",
"jX c #A6A7A9",
"kX c #B5ADA3",
"lX c #B7AFA6",
"zX c #B9B1A6",
"xX c #B5B1AC",
"cX c #BBB2A9",
"vX c #A7ABB4",
"bX c #AFB0B2",
"nX c #ACB2B9",
"mX c #B3B4B4",
"MX c #B5B7BB",
"NX c #C19183",
"BX c #A0CCB3",
"VX c #B3BAC5",
"CX c #B2BAC7",
"ZX c #B8BDC6",
"AX c #BAC1C9",
"SX c #BBC2CD",
"DX c #BDC5D2",
"FX c #BFC8D4",
"GX c #98E0C0",
"HX c #C2C5CA",
"JX c #C2C9D4",
"KX c #CAD3DB",
"LX c #D1D9DE",
"PX c #D1DAE2",
/* pixels */
"$.=.w.u.u.u.w.w.w.w.w.w.8.w.i.8X8XqXwXwXwXwXqX8X8XXXi.u.e.w.w.e.8.-.-.-.-.-.-.=.=.-.-.=.=.-.-.-.*.*.-.-.-.5.6.e.0.6.5.5.-.*.*.^ -.[ m v v ! =.*.^.0XoX6.&.%.%.^ N N m m m z z v m v V 6.y.^.9X0X0X0XuXiXiXiXuXuXiXiXiXuXuXiXiXuXuXuXuXuXuXuXwXwXwXwXwXwXuXrX0XrX",
"=.3XdXgXgXgXdXdXqXqXqXqXqXqXwXgXjXvXbXbXbXvXjXjXgXwXqX8X8X5X5Xi.t.e.t.i.i.i.r.e.e.-.[ [ [ *.5.0.6.*.5.5.5.5.&.&.*.5.0.5.[ I ] P ~ I 9 7 1 8 ~ [ 0.r.5.*.0.q.,.[ [ ! 1 & & @ & * 1 * 1 8 N &.y.9X0XuXsXlXcXcXcXcXcXcXzXzXzXcXcXzXzXzXzXzXzXzXzXzXzXzXzXlXkXkXkXkX",
"u.gXSXJXJXFXSXAXVXVXVXnXnXnXnXMXMXMXMXMXMXmXmXbXbXbXvXjXjXjXjX0X^.8XwXwXwX0XoXr.6.&.&.*.*.[ *.6.0.6.,.0.5.[ [ 5.r.9XwXoX[ q 9 9 8 8 8 8 4 8 v m z ~ 6.E.^.r.q.,.*.q & @ o & 8 * + % + o o o c &.*.5.r.0XlXcXcXcXzXzXzXzXzXzXzXzXzXzXzXzXzXzXlXlXzXlXlXkXkXkXkXkX",
"5XnXKXPXPXPXLXKXKXJXJXJXSXSXSXSXSXAXAXZXZXZXMXMXMXMXMXMXMXmXxX9X9XwX0X8XE.0.[ M P ^ 5.5.] ^ ^ [ &.*.&.,.{ { q.y.y.E.r.[ b 8 8 8 8 3 3 3 3 3 3 3 3 *.^.^.^.E.q.~ q 1 & & 1 m M * + + + & z 7 % * V r.6.5.uXkXkXzXzXzXzXzXzXzXzXzXzXzXzXzXlXlXlXlXzXlXkXkXkXlXlXlX",
"qXnXJXKXLXLXLXKXKXKXJXJXJXJXHXHXHXHXHXHXAXAXAXZXZXZXZXZXMXMXkX^.y.6.&.N b v 1 @ @ & c c 4 z 4 8 ! 5.{ H P { ,.5.,.*.Q v v 8 3 3 1 1 1 1 1 1 1 , 3 [ r.E.^.0.P 3 1 1 3 M ^ [ m & + + + @ 7 v 8 3 8 ,.E.*.6.r.^.iXkXzXcXzXzXzXzXzXcXcXzXzXlXzXzXzXzXlXkXkXkXkXzXlX",
"jXbXZXAXHXHXHXHXHXHXHXHXHXAXAXAXAXZXZXMXMXZXZXZXMXZXAXHXZXMXrX6.M 4 1 @ 7 7 & + + & 1 , 1 v V ! N P ! b 9 b I ~ ~ I 9 7 8 7 1 & & & @ + % & & * * 8 *.0.*.v & + & 3 ! *.&.M 1 & * 3 7 1 1 v *.[ 9 9 &.^ Q N m r.kXcXcXzXzXzXzXzXzXzXzXzXzXzXzXzXzXzXzXlXlXzXzXlX",
"bXbXmXmXmXmXmXmXmXmXMXMXMXMXmXMXMXMXMXMXMXMXMXmXMXMXZXHXMXiX6.b 2 2 1 7 8 7 & + % 3 3 3 3 m V V M 9 9 8 4 8 v 9 v 9 4 3 8 3 & % & & + o o o + & & & 7 8 3 + o + 3 C [ ] M 8 * & * z v 7 1 8 *.*.P 2 9 8 & 3 ! i.kXcXcXcXzXcXzXzXzXzXcXzXzXzXzXzXzXzXzXzXzXzXlXlX",
"mXmXbXmXmXmXmXmXmXmXmXmXmXmXmXmXMXMXMXMXMXMXmXbXbXMXAXHXMXr.b 8 7 2 7 z V %.C * & 1 * * 1 3 3 1 & & 1 & & & , 1 8 8 1 1 8 1 @ % & * % o o o o + + o o + o o * 3 M ! m z 3 3 1 & & * 3 3 & , z N ! 4 @ , ! i.wXsXcXcXcXcXzXcXcXzXzXcXcXzXzXzXzXzXzXzXzXzXzXzXzXzX",
"jXjXjXjXjXjXjXjXjXjXbXbXmXbXbXmXmXmXmXmXMXmXxXaXjXmXAXAXiX] 8 8 8 7 8 8 N ] N 7 * & & & & 1 3 & & & & % % % % % 3 1 1 8 4 & @ & 1 1 & % + o o o o o o o % 3 7 8 7 3 & % % % @ + % & * & @ * 3 7 8 1 & v r.iXzXcXcXcXcXcXcXcXzXzXzXcXcXcXcXcXzXzXzXzXzXzXzXzXzXzX",
"u.u.u.u.u.u.t.t.i.i.i.i.5X5X5X8X8X8X8X8X8X8X8Xi.i.qXwX9X6.b 7 8 1 * 7 3 q ! M 7 & * & & & * & & & & & @ + % % % 1 * 3 3 & o & 1 1 3 1 * % % % % + + o % * 3 7 3 & o o X o o o o o + + % & 1 1 1 % % & Q 9XiXcXcXcXcXcXcXcXcXcXcXzXcXcXcXcXcXcXzXzXzXzXcXcXzXzXzX",
"; ; ; ; l l x x x x x x x B B B B B C C C C C B B [ *.{ I 8 1 1 @ + 7 7 8 v z & @ & & & & & & % & & % @ + o + % & & 1 & + o & 3 3 7 3 1 * * * & & @ + + & 1 1 % o o X X X X X X X o % 3 v V v 3 o o & v r.uXzXzXzXcXcXcXcXcXcXcXcXcXcXcXcXcXcXcXcXcXcXcXcXcXcXcX",
"                          X X X % X X o = = * * 1 M P I M 7 1 * + @ 7 8 8 9 9 1 1 * % @ % % + + % % % % + o + % % % % + % & 1 3 7 7 3 3 1 3 3 3 * + o o + + o o o X X . . X X . o o v =.0.r.*.! 1 o % 3 ! 9XsXlXzXcXcXcXcXcXcXcXcXcXcXcXcXcXcXcXcXcXcXcXcXcXcXcX",
"# # # # # # # # # # # # # = ; = - - - ; d d z c v N M P b 8 3 1 @ 1 8 q q 9 9 8 3 1 * & % % % + % % o o + o + + + + + @ & & 1 1 1 1 1 * & * 7 7 & X X o + % % o o X X X X X X o % % M &.*.&.] ] 8 @ & & z 0.9XkXcXcXcXcXcXcXcXcXcXcXcXcXcXcXcXcXzXcXcXcXcXcXcXcX",
"r r r r r r r r r r y y y d x m c c x x d z m c z P P P q 8 8 8 4 8 v b q 9 9 8 4 3 1 & & & & % % o o X o o o o o + % % * , * % @ & % o o % * & X X X X % & & % o X X X o o X o % + * 3 8 8 8 z 1 @ 1 1 8 *.E.9XsXzXcXcXcXcXcXcXcXcXcXcXcXcXcXcXcXcXcXcXcXcXcXcX",
"p p p p p p p p p p p d B m m m m m m m m m m c c Q P M 9 8 9 8 9 b b q 9 9 4 4 8 3 1 1 & & & + o o o X o o o o o % * * % & % o o o o o o o o o X o X o * * & % o o o o o X X . o o o o X X X o o @ 1 7 ! r.r.^.uXkXlXlXcXcXcXcXcXcXcXcXcXcXcXcXcXcXcXcXcXcXcXcX",
"y y y y p p p p p d x m M v z 7 7 7 7 4 8 v v v N P b b q 9 q w M P b 8 4 4 3 3 3 1 1 * & & @ + o o o o o + + o o & 3 % o o o X X X X X X X X X X % & * 3 & @ + o o o o o X . . X X X . . . X X o % 1 8 &.y.6.y.9XaXaXaXaXsXkXlXcXcXcXcXcXcXcXcXcXcXcXcXcXcXcXcX",
"# # # = = = = = = 3 M M 8 1 1 3 8 8 4 3 3 3 4 8 b b 8 q q 9 9 I ~ P 8 1 1 1 1 1 1 1 1 & & % @ + o o o X X o o o o & * o o X . .         . X X X + % & % o o o o X X . o o o X . . X . . . X X X o + & v *.&.~ [ &.5.r.^.OXrXiXsXlXcXcXzXlXcXcXcXcXcXcXcXcXcXcXcX",
"X X X X X X X X * c M 8 3 3 4 q q v 9 9 8 7 1 1 8 8 9 9 9 9 b I P 9 , , * * & & & & , , & % % o o o o o o o o o o & * o X X . . . . .   . X X X X X X . . . . X X . . X X X X X X X o o X X X o o o % * 3 * 3 M ^ [ *.6.6.r.uXaXaXsXkXkXzXcXcXcXcXcXcXcXcXcXcXcX",
"    X X X X   % c v 3 3 v 4 4 v v b q q b q 8 8 7 8 8 9 9 b M b b 4 1 1 & @ + @ & & & , & & & o o o X X o o + % + & * o X X X X . . . . . . X . . X X . . . . . . . . X X X . X X + o o o o o o o o o o o o o 1 v P [ 5.*.[ r.oX0XiXsXkXkXzXcXcXcXcXcXcXcXcXcXcX",
"- $ $ $ $ # $ z M 9 4 c v c c 9 b b b b b b b b 8 3 2 8 8 b b q 8 , , & + + + + % & & & 1 * & o o X X X o o o % & & * % o X X X . . . . . X . . . X . . .   . . . . . . X X X X X o X o o o o o o o o o o o + % 1 1 4 c b ! [ &.^.9X0XuXaXsXzXcXcXcXcXzXzXcXcXcX",
"D D D f s d f Q P c n n n n n 9 w P P P P I I P b 8 2 7 8 v q 8 1 + + + + % + + + + % & * * & o o X o o o o o o % % & & + o o o X X X X X X X X X X X X . . . . . X X X X X X o X o o + + @ o o o + + % & & & * & & & 1 3 v M ^ r.9XoXy.^.OXuXkXlXcXlXlXcXcXcXcX",
"G G ) W E E W / Q c n P K P P b w P P P ~ ~ ~ P b 8 2 3 8 8 4 3 @ o + + + % + + + + + + & * & + o o o o o X o o o o % % % + o o o o o o X X X X X . X X X X X X X X o o o o o % % & * * & % o o + % & * 1 1 1 & & @ @ @ % 1 7 v *.^.oX^.r.r.r.9XsXlXlXcXcXlXlXcX",
"g.g.) ) W W W / W n K P P ~ I b b P I ~ ~ ~ I b 9 3 1 1 3 1 & % o o + & % + + + + % + + + & & % o o o o X X X o o o o + + + + + o o o o o o X X X X . X X o o o o o o o % & & & * * * * & + o o o o % & & & * & @ @ o o o , v Q P 5.^.oX^.oXE.E.0XkXlXzXlXcXcXcX",
") ) ) W W W W / / K n P ~ { ~ I H I ~ ] ~ I b q 9 4 1 1 , & @ o o o @ * * & + o + % % % & % % % + o o o o o o o o o + + % % + + + o o X o o X X X X X X X X o o o o + & 1 1 1 1 3 3 3 1 & @ + o . X o + + @ % & % + o o o @ 3 b b N *.y.0XaX0XE.E.iXlXlXlXzXcXcX",
") ) W W E E #.#.#.^ K b ] { ] ] I I I I H H w q 9 8 1 * % @ o X . + * 1 3 1 * & + + & * % + + + % % + + o o o o o o o % & & & + o o o X X o X . X X X X o o o o o o % & & , 3 3 4 8 3 1 1 , & @ % o o o o o o @ & & + o o o @ v M M M *.9XaXsX0XE.OXsXsXkXlXlXcX",
"4.4.4.4.#.#.&.&.&.&.&.~ { I I ~ I I I w w w w 9 8 4 1 & + o o . o * 1 1 1 3 1 3 1 % % & + % + @ & % + o o o o o o o o % & % % @ + o o X X o X X X X X o o o o o o O @ @ o o @ @ & & , 1 4 4 4 4 4 4 , + o o o o % * * + o o o 3 c 8 c ! r.0XaXiX^.^.aXaXkXkXkXsX",
"9X9X9X9X8X^.^.^.r.6.6.0.;.{ { ~ ~ [ ~ P b w 9 8 4 1 1 & + o o o * 1 & & 1 4 8 3 3 * + o o & & & & + o o o o o o o o + % % + % & + o o X o o X o o o o o o o o o o o @ % & 1 1 1 & & & 1 2 9 9 9 4 4 4 1 o X o o + * 3 & o o o @ 1 3 7 v ! *.r.^.E.y.uXaXkXlXlXkX",
"iXiXiX0X0XwX0X9Xr.6.q.,.,.6.,.] ~ ~ ~ I b 9 2 2 1 1 1 * & + + @ 1 & & 1 1 3 7 3 1 & + o o + * 1 & o o o o o o o % & & & % + + @ + o o o o o X o o o o o o o o o o o + & 4 7 7 3 & % & 1 2 2 2 8 4 , , 1 & o X X o % * & o o o o 1 3 c v P ^ ^ &.*.*.oXuXkXlXcXcX",
"iXiXiXwX0XwXwX9Xy.r.q.0.*.*.{ I I I I I w 2 1 4 4 2 1 & & @ @ & & & & * 1 3 3 1 & @ o o o o & 1 , & & O o o O & * 1 3 3 * @ o o o o o o o o o o O % % % o o o o o o o & 1 1 1 & @ + @ 1 1 , , , 4 , @ o & & o X X o + o o o o o 1 3 Q ! ! 0.5.*.{ Q &.r.9XkXlXlX",
"jXjXjXjXwX0X9XoX^.y.q.,.{ ] ] I H H I I w 8 8 7 4 2 1 1 1 & @ & & & & 1 8 8 1 @ @ o o o X o + & 1 1 1 , % O O O % & & & + o o o o o o @ % % @ O @ @ & & O o o o o o o + @ & & & + @ & 1 1 1 @ @ 1 3 @ o o & o . . X X X X o o O & 3 Q ! P *.0.6.5.*.0.6.5.^.kXcX",
"xXxXjXjX0X9XoX^.E.q.,.{ I I ~ H w w I I 9 9 9 8 4 2 1 1 1 1 , , * * 1 4 v 4 & @ @ @ + o o o o % & & 1 3 3 & @ O O o o o o o o o o O & & & & & & & @ @ @ & % O o o o o + & & & & & & * @ , 1 1 & 1 c 3 @ o + + X X . X X X o o @ & 1 Q ^ N ^ *.*.[ *.y.9XE.*.E.kX",
"mXxXaXwXiX0Xr.6.{ I I I I ] I w w w b b 9 9 9 4 1 , @ 1 1 1 & * * * 1 1 1 & & & % & @ o o o % & & & & , 1 3 & @ @ @ o o o X X o o @ & & , , , 1 , & & @ & & & @ o o @ % & & * 1 1 , , , , & 3 3 8 9 4 @ o o % X X . X X o o o % * , V ^ ! [ [ ^ *.5.5.y.E.r.5.i.",
"xXjXjXaXiX0.P P w w I I I b w q w w w b w w 9 4 1 & & * 1 * & & * 1 1 1 1 1 3 3 1 & @ o @ % @ @ @ @ & & & , & & & @ o o o X o o @ @ , , , , , , 1 , , , @ @ & & @ @ & , 1 1 1 1 1 1 , 1 , & , 4 4 4 1 @ O o o o X . o o o o @ * 1 1 4 V %.%.Q ! r.y.q.oX^.r.y.5.",
"xXjXjXaXoX[ b q q b I I I b w w w w w H P P b 4 , & & 1 1 1 * * * 3 3 1 1 1 3 7 8 3 & @ @ @ @ @ O @ & & & @ @ O @ o o o o o @ @ @ , , , < 2 < : 2 2 < < 1 1 , , , , @ @ @ 1 1 1 4 4 1 1 , , , 1 1 1 1 1 & o o o X o o o o o & 1 3 1 , v ^ ! N *.0.r.0.oX9X^.y.r.",
"bXbXjX9X*.M b b M b b q 8 9 q q 9 9 w w w b 8 , & & & 1 1 1 1 1 1 3 3 1 & @ + % % @ @ + o o @ @ @ @ 1 1 , @ o O , , , : : , : : : : : : 5 5 2 5 5 5 5 5 2 < < < : , , , , , 1 2 2 4 4 2 1 2 1 , , 1 3 3 & o @ + o o o o o o & 1 3 1 4 8 1 8 %.r.y.y.i.0XwX9X^.y.",
"mXbXoX] q b b b b b b b 2 2 9 q 8 8 8 < 9 8 1 @ & & & 1 1 1 1 1 1 1 1 1 % @ + O O @ + o o o @ 1 , @ , 1 , @ O : 5 0 w 0 0 5 2 2 : : : 6 w 0 6 6 0 0 6 0 0 6 5 2 2 < < < , , < 2 2 2 2 2 2 < 4 1 , , 1 , @ @ % o o X X X o o % 1 4 4 8 c M v v %.r.0XaXaXkXiX9Xy.",
"xX0X&.q b v 8 8 q b b I P 9 9 w 8 8 1 @ & @ + & & & 1 1 1 1 1 1 1 1 1 1 1 & & & & & @ @ @ , 2 9 9 : : & @ O @ , 5 0 H A A 0 6 0 6 0 A U U S 6 A S A A A A A 0 6 5 2 : < < 2 2 5 2 2 2 2 2 < 2 1 : , , , & % o X X X X X X o @ 1 3 1 3 M 5.*.v c Q E.iX9XOX^.5.*.",
"wX5.b v 8 4 8 v v q b I b w w P w 9 1 @ O O @ @ , 1 1 1 1 @ @ 1 1 1 1 1 1 1 1 , & @ @ : 0 J J J H 0 6 5 < 5 0 0 0 0 A A A A S U R } } } R S S S J S J S A S A 0 6 5 : < 2 5 6 6 6 5 5 5 2 < 2 2 , , , 1 1 & o X X X X X o o o & & , 3 m &.6.&.m z 0.9X0.! v [ ^.",
"t.Q 8 7 8 v 8 9 8 9 q b 9 w w P H H w 2 : 1 1 , , < 1 1 1 1 , 1 1 1 * 3 1 1 1 1 , @ , 0 U R R T U L T T U T _ } .._ L U R } X.....O.O.| R U U U L J J S S H H 0 0 6 5 5 6 0 A A A 0 6 6 5 2 < 2 1 , 1 1 1 & + o o o o o o o o o @ & 1 1 V *.6.5.r.8XoX0.P 8 [ ^.",
"&.v * C C z 1 8 q v v q 8 9 9 w A A 9 2 2 < < < < 2 2 < 2 2 1 1 3 1 * * 1 1 1 1 1 < 0 Y _ | ....| ( ( ` | ..O.:.O.` _ ..O.1.1.O...O.O.O.<.O.( L S J J J S J J S A 0 6 0 A S S S S A A 0 6 2 2 4 2 1 1 1 1 @ + + o o o o o o o o * , 3 3 1 N 5.y.oXoX^.^.6.Q 8 %.",
"Q 1 7 *.! V v v v N v 8 8 2 9 9 8 5 5 2 < < < < < < 2 5 9 9 8 1 1 1 & & * * @ & 1 w U ( ` ..:.:.O.O.| ..>.2.2.2.>.O.O.2.c.1.:.O.1.1.1.1.v.1.` S S U U J J J J J S 0 5 0 S J J S S A A 0 0 5 5 6 4 1 1 3 4 @ + + % o o o o o o % 1 1 , m v 3 M 0.oXoXy.r.oXy.M 3 ",
"7 o z %.%.%.-.-.[ I P q 9 9 9 2 2 2 2 < < < < 1 1 , , 2 4 9 9 1 , & @ @ @ @ o @ 2 L ( ` ..+.1.z.1.1.1.v.C.H.H.D.S.S.v.C.S.c.+.1.H.H.C.v.C.C.O.T U T U U U U U S A 0 6 A S J L J S J H H 0 6 9 2 < 1 , 1 8 & @ & 3 * o o o o % * 3 1 & 3 c 7 3 8 ! [ [ *.*.&.V * ",
"* o ; B %.e.oXr.*.b P b 9 9 9 5 2 2 < < < < 1 1 < , : : , 1 4 , , , & @ + o o & 0 R | o.+.z.v.b.C.H.H.H.Q.Q.Q.Q.J.H.H.H.J.H.b.b.L.Q.Q.J.W.H.b.O.} ` _ _ ( R U S J S A S S J J J J S S J A 0 0 2 < , : , 1 1 & & 1 7 * % & % % % % % % & * 3 1 3 3 8 z 8 & + @ @ ",
"7 o + x -.i.i.[ b 7 v v 9 9 9 9 8 2 2 4 < < 1 : < 2 5 6 2 2 < 1 4 3 1 & o o , 2 J ` o.+.z.v.b.D.R.(.].].].]._.'.(.(.(.].[.].(.J.J.(.(.(.Q.J.S.z.+.o.O.| ` ( T U U J J L J S S J J S S J H w 0 2 < : @ @ @ , 1 @ @ % % @ @ & & % o + % % + % % * * 1 * % @ % & & ",
"%.% o x 5.-.] M * 1 9 9 8 2 8 2 2 2 8 2 2 < : : < 2 0 b w 6 2 2 1 1 & O o @ , 0 _ ..+.z.b.C.H.Q.'.[.&X=X=X&X X X[.[.[.=X=X&X@X[.(.(.(.(.(.Q.J.S.b.c.+..._ T R R U J U R U S S S J S S J A A w 9 5 < , @ @ & & O O @ O + @ % * * & o o o o o o o o o o o o @ @ @ ",
"qXC % * v v z 1 + 1 7 9 9 8 8 8 2 8 8 2 2 4 < < 2 9 H H w 9 5 9 9 9 4 , , 2 w _ O.1.z.b.S.J.Q.].[.=X=X=X=X=X=X=X=X=X=X=X=X=X&X[.[.[.'.(.'.'.Q.J.S.b.1.} R ( _ T S R ( ( } U A A J A A A A H A 0 9 2 < , , & @ O @ @ @ + + % & * & + o o o o o o o o o o o o o @ ",
"HX3XV 3 * & * * & 1 7 c v v 9 8 8 4 8 9 2 < < 2 q P /  .{ ~ H w b H 0 w J / <.v.b.V.S.H.L.(.].&X=X=X>X>X>X>X>X>X>X>X>X>X>X>X=X[.[.[.].[.[.].(.R.S.b...( O.O._ U U } O.| o..._ L A A A A A J J H A 0 5 < , & @ o + o o + + + % + + + o o o + + % + o o o o o % * ",
"KXbXe.N 7 * * 3 1 1 8 v v v b v 9 4 4 8 4 1 1 9 b ~  .<.v.B.v.1.2.2.2.v.C.C.F.H.H.L.(._.].[.@X&X>X>X,X<X<X<X<X<X>X>X>X>X>X>X>X=X=X X X[.[.[.].J.S.z.` ..X.T R O.( _ 1.+.o.O.O...L A A J J J J J J 0 2 2 1 1 & % % + + + + + o o o o o o o + % + + % + + o % * 3 ",
"ZXqX5.N 8 3 1 3 3 8 M q 8 q b v 9 8 3 1 1 , 1 9 b / X.2.C.C.C.H.H.H.H.W.Q.!._.].].].+X%X&X&X&X=X,X,XeX<X<XeX<XeX<X<X<X<X<X<X>X>X=X=X=X X X].(.D.G.v._ R T ` 1.3.X.U X.1.O...} U S S J J U U U U J A w 5 2 1 , & % + % + o o o o X o o o o o + % % @ + % & & * 3 ",
"ZXt.C 7 8 3 3 3 3 9 b 8 8 b b v 3 1 1 1 @ @ , 4 H / O.v.B.C.C.S.H.W.!.'.Q.(.].%X%X%X%X&X*X*X*X;X,XeXeXeXeXeXeXeXeXtXtXtXtXtXeX,X=X=X=X&X X].'.Q.Q.H.b.2.>.:.1.1.<.} Y U U J S S T R U _ ` ( ( T T Y J 0 6 1 , & % % % + o o o o o o o X o + @ & & @ @ & & & & 3 ",
"HXe.v 8 8 3 3 3 3 8 q 7 8 b N b 3 * & & @ @ & 9 J ..2.b.C.C.H.H.W.!.~._.J.J.'._.].].].].].%X%X%X*X,XeXtXtXyXtXNXNXNXNXtXyXyXtXtXeX,X,X*X X_.'.H.m.2.<.<.<.;. .} / / Y U U / } ....} T ( _ ( ( ( T U Y J 0 2 , % $ % % % % o o o o o o o o + + + + + + @ % @ % * ",
"KX^.v c 8 7 1 1 3 3 8 8 9 v b b 8 * % @ @ @ 1 b / 1.B.C.F.H.H.K.Q.!.!.W.B.2.2.m.Z.Z.Z.7.3.<.C.H.W._.%X,XeXtXtXtXyXNXNXyXyXyXtXtXeXeX,X&XW.Z.m.:._ R / Y L L L J J J K H J Y } :.O.| ( T T T R R T T T I w 4 1 % % % & & & + + o o o o o o % % o o o o o + @ % % ",
"PXmX-.M 7 7 3 * * * 7 q v q v 9 8 3 & + & 1 9 b { v.C.F.H.H.H.H.K.H.B.<.{ ~ / { &.{ {  . .{ /  .3.m.H.!. X%X,XeXtXyXyXyXyXyXtXtX,X*X XW.3.;. ./ / I K n n n b n 0 w w w 0 b H J R _ _ ` ( R ( T T T Y J w 4 1 & % % & & % % + o o o X o o % % % o o o o o o % % ",
"KXHXwX&.7 7 3 * & & 1 8 8 q v 7 3 1 1 * 1 8 9 b  .B.C.H.K.K.H.C.m.:./ J I P H K K K K K / { ~ I / { <.Z.Z.Z.].,XeXtXtXtXtXtX<X;X X!.Z.3.X. ./ I K n n n 9 0 c b n n 9 9 9 9 9 6 6 0 J T T T T T U U J A 9 2 1 , & & & & % % + o + o X o % % % % + o o o o o % * ",
"JXSXmX5.v 7 3 3 7 3 3 8 z v z 1 1 1 1 1 3 3 4 v ;.Z.H.H.W.W.H.B...Y I I P P P P P M n c 9 H P H K I / ;.<.<.T.%X*XeXtX<X<X>X*X(.H.C.<. ./ Y b 9 4 4 4 4 9 n Q ~ ^ ~ ~ Q P P K b 0 0 H L Y T T T U L S 0 2 , & & & & & & % % @ o o o o o % & % o o o o o o % * - ",
"LXJXjX5.m 7 3 z %.-.C z v v 8 1 1 * * 1 7 1 1 v  .B.H.J.W.W.Z.3. .~ Q ^ [ &.&.&.&.&.^ P M n n K K K K ~ { { 3.H.~.*X*X*X*X%X(.H.3.:./ I K n c z z m m m V %.5.e.e.e.e.-.%.^ ! ^ %.%.%.^ ^ ~ I J J J A 6 1 & & % % % % @ o % % o o o o o + % % % % o o % % - y d ",
"PXKXSX8X! z 7 z C i.i.-.C v 7 * 1 * & * * & 1 8 / 3.m.7.7.7.&.^ N M m V ! ^ ^ %.*.&.^ Q Q Q V Q V M m M V Q ^ ,.q.T.W.W.Z.Z.3.;.{ Q V V V V Q Q ! ^ [ ^ &.e.5XXXt.t.6.6.,.;.*.*.5.*.*.=.=.-.=.B 3 & 3 3 3 3 % % % % % % o o o o o o o o + % % % $ % % % * d d d ",
"PXKXJXfX-.V 3 z 3 C e.i.-.M 7 1 3 1 & 3 z z 3 3 z V ! C C C ! ^ ^ { &.;.;.;.;.,.,.7.,.;.;.;.{ &.&.[ %.%.^ C B B B B V #.0.*.z #.-.C C ^ &.&.&. . . .;.0.e.XXhXhXhX5XXXt.r.q.Z.Z.Z.Z.9.,.{ [ %.B = X ; x x 3 * * % + o + % O O o o o o o o + + o o % % % & 3 d d ",
"LXKXJXnXe.C 3 7 B x x C C C M z v 4 1 z %.%.; o % = ; M [ ;.7.7.7.v.v.v.v.2.<.<.3.3.,.;.;.;.;.;.<.7.q.E.oX8X-.B x y ; B 3X=.- %.5.^ ;.7.3.<.X... . .*.8.w..X6XBXGX7X6XXXXXXXt.y.oXE.E.E.r.*.%.B = X ; m ; ; * & & & , @ : : : : @ @ O o o o o o o o % % & & - < ",
"KXKXKXHXwX%.z 3 %.u.%.x 7 z 7 8 n n n M %.-.; X X o z  .<.3.3.3.3.2.1.<... .{ { { ~ Q Q ~ Q &.6.6.q.E.wXxXMX0X%.x l y x C x ; %.%.,.q.q.q.3.:...;.*.=.w.w.6X7X7X7X6X.X.X.X6X6X6XpXpXpX0XOXe.=.C = X ; m 3 - & & , 2 6 6 5 6 6 5 2 < @ O o o o o o o o o $ % % & ",
"KXKXKXKXZXt.m 3 ; %.-.-.C * @ 8 n K P P ! %.; X X o K ;.<.1.2.3.2.<.X.} { / Q Q ^ m m V m v M [ 6.q.T.OXOXOXOX5.d d z V Q v x %.%.,.7.q.Z.B.<.,.6.e.8.8.w..X.X.X.X6X6X.X.X.X.XXXXX6XXXOXXXe.-.%.= $ 8 P 9 , & , , 6 J L U T U L J H < @ $ $ + o o o o o o $ % % ",
"KXKXJXSXjXi.%.v * % ; x ; + @ 6 L J H b v M 3 = o * ^ 3.3.3.3.3.1.X._ / I K &.0.e.^ Q ! ^ N n 5.^.E.T.E.OX!.E.*.z M 7.W.T.7./ V %.&.,.9.Z.v.:.q.E.oXt.=.$.=.8.w.XXXXt.0.*.] [ *.,.9.9.,.,.,.*.C c I U J 6 , @ , , 6 J ( ( ( ` ` ( T 5 & % & * % o o o o o $ % % ",
"JXJXSXbXi.r.0.] ] v % o X X o 6 _ ` ( _ I n z z ; 3 *.Z.Z.Z.B.v.1...R U L / ,.y.E.5.P b b K [ y.^.E.q.Z.~.~.T.^ c ;.!.].(.J.>.n C [ ;.B.C.v.O.<.3.q.y.q.5.5.0.0.q.q.,.;.;.;.X.<.3.9.3.3.<.,.&.V /  .T J 6 , @ & , 5 J ` o.' ' o.' _ 6 % % % * * % $ % & & & - - ",
"FXSXAXgX5.0.*.] ] m & o X X 3 Q :.o.o.` R I M V m x 5.!.!.W.H.C.m.2.:... . .;.,.7.7.;. . .;.7.Z.Z.Z.Z.W.!.W.7.m P Z.'.(.(.J.m./ V ^  .3.B.Z.Z.Z.Z.Z.Z.Z.Z.Z.Z.Z.7.3.3.<.3.3.3.B.B.B.b.3.1.;.~ P  ...T J 6 , @ , 2 J ` z.x.' ' ' ' ..5 % % % * * * & % & - 3 d d ",
"AXSXAXwX&.[ [ ~ v 1 o X X x =.&.>.o.o.o.O.~ K P Q B *.!.+X~.!.Q.K.H.C.v.3.3.3.3.3.7.Z.m.Z.Z.Z.H.H.R.!.~.W.Z.&.c ;.R.(.(.(.J.n.:.~ #.{ <.v.C.Z.Z.Z.C.C.C.C.Z.Z.Z.Z.C.C.C.C.H.H.H.H.F.C.v.1.;.P K X.O._ L 0 < : , 6 Y 1.b.b.o.' ' o.` 2 @ % % & * * * * % - 3 d d ",
"AXZXMXqX*.[ ! b 7 & o X X C e.&.>.k.o.z.2./ H P ^ ! %.W.+X~.!.!.!.W.K.H.H.H.Z.Z.H.H.R.H.H.H.Z.H.T.R.R.W.T.q.Q n Z.'.'.'.).P.D.x./ ^ ^ ;.2.v.m.C.Z.Z.Z.Z.Z.H.H.H.H.L.W.Q.!._._.Q.L.J.S.v.1.;.n Q :.O...T A 5 , 1 w / b.S.D.x.' ' k.Y O o o o % * * * * * & < d d ",
"AXZXbX8X5.~ N b 7 3 * o o v ] ~ :.k.h.n.Z. .H H &.%.^ T.+X~.!.!.!.!.!.!.!.!.!.!.~.~.!.!.R.R.R.R.R.R.R.R.T.;.c { R.].|.|.`.I.D.b.O.I M / <.v.m.Z.Z.Z.Z.H.R.R.R.W.~._._._._.`.`._.(.L.F.b.2.{ n { 1.O...` J 9 2 5 A } b.D.P.M.o.o.z.0 o o X o o % * - - * - < 3 d ",
"ZXVXnX9Xt.[ N M z v 3 + * M ! N  .x.h.M.(.m.U K &.,.^ ,.~.].!._._._._._._._.].].%X%X X].!.!.W.R.W.W.W.R.Z.P M m.'. X=X|.[.).D.n.1.} K P  .2.b.C.C.C.H.H.R.R.Q.Q.'.'.'.].].(.(.(.(.J.S.b.2.Q K ;.1.1.O.} T w 5 6 J O.b.D.P.D.h.h.` < O o o o o o % < < - - < - d ",
"VXVXjX8X9Xe.~ M z v 7 * v ] &.V / m.k.P.).(.X.J ;.T.&.&.T.].(._._._._._._.].].].].].].].!.!.!.!.!.!.Q.H.{ v ;.R.].&X=X|.|.).G.b.z.O./ P Q ;.v.C.C.S.H.H.R.R.Q.(.(.(.(.(.(.(.(.(.J.J.D.m.;.P  .1.1.1.+...T A 2 H :.x.n.n.D.D.x.o.A O @ o o o o o % * - - - * d k ",
"VXVXjX8X0X9X&.M z z 3 3 v N N M P 2.M./.{.I.c.R ;.W.q.&.5.W._.].].(.(.(.(.'.'.'.'.'.'.].].'.'.'.Q.R.Z.;.P &.T.!.].@X#X#X|.).G.S.v.1.X./ Q #.;.<.v.m.C.H.J.J.R.R.R.R.(.(.R.R.R.J.H.Z.m.7.;.;.2.z.z.+.O...R 0 6 _ M.M.x.k.n.M.x.| < % * & o o o o o * ; - - - d @.",
"VXVXnXqXqXwXe.m ^ -.B 3 z z 7 3 1  .D.).).D.x.| ;.W.~.q.&.&.7.W.!.!.(.(.(.(.(.(.(.'.'.'.(.Q.R.T.7.;.#.~  .Z.W.(.].@X=X=X[.(.G.S.b.1.O.X._ / ;.;.;.,.7.7.7.7.m.m.Z.Z.Z.m.7.7.7.,.,.,.7.7.m.b.b.z.z.1.+...R A U >.m.b.h.o.k.n.k.L : % & % o o o o o % * * - d k @.",
"VXVXZXvXqXwXe.x %.8X8.x m C ] z 3 { D.U.P.n.k.>.3.W.+X%XW.7.;.,.,.,.,.7.7.7.7.7.7.7.7.7.,.;.;.&.&.&.;.2.C.H.Q._.].@X=X=X[.[.(.D.C.v.>.O...| | X.<.,.,.7.7.7.6.6.6.6.7.7.7.7.,.7.m.m.D.D.D.S.b.v.z.1.>...R S _ ..o.o.' ' n.n.o.6 o o % % o o o X o % % * - d k @.",
"VXZXSXZXjXqXu.z d e.i.B x %.=.3 3 I b.P.n.h.o.2.Z.!.+X@X&X&X].~.W.Z.7.,.;.;.&.&.;.;.;.;.,.7.m.Z.H.H.S.S.H.H._.[.@X=X=X=X#X[.(.P.S.b.1...| o.o.z.b.b.M.D.D.D.R.R.R.R.R.(.(.(.(.P.P.(.G.D.D.S.S.b.z.1.+...T R ( ( o.' o.b.n.z.} , o o o o o X X X o $ % - d j j @.",
"VXZXDXDXAXjX3XB * B =.m 3 7 7 & * b v.P.P.h.' o.H.~.].+X@X&X&X=X;X=X=X=X=X[.{.{.{.).'.{.{.{.|.[.{.).(.D.S.Q.[.=X=X=X>X=X|.#X[.(.J.S.v.+.o.| o.x.M.D.D.P.I.).).{.{.{.{.[.[.[.[.)./.I.P.J.D.S.S.b.z.1.O...} ..` 1.b.z.z.b.x.z.U : o o o o o X o o % & ; d j h h j ",
"VXZXDXDXDXZXjX-.B x z z % o & & & 8 :.D./.D.x.x.C.!.].].[.&X&X=X=X=X=X=X=X=X|.|.|.|.|.|.|.|.=X|.|.`.I.D.G.[.=X>X>X>X>X>X=X>X=X[.(.G.S.z.+.o.o.o.n.G.P.I.).).`.{.|.|.|.|.|.|.[.).P.P.P.P.G.D.S.b.z.<.O.....O.z.S.D.S.z.h.z.:.9 , % o $ % % % % % * ; d j j h a i ",
"VXSXDXDXFXDXVXqXu.-.=.$.x & * & & 1  .S.n.G.].[.W.(.~._.].&X&X=X=X>X>X>X>X>X>X>X-X-X-X|.|.-X-X=X|.`.I.(.`.#X=X>X<XtXtXeX<X>X>X#X).J.S.n.b.x.k.o.x.P.).).).{.{.{.|.|.|.|.|.|.[.(.P.P.P.J.D.S.S.b.1.O.X.....1.C.J.L.D.b.z.1.Y & * 3 - - - * ; ; 3 3 3 d j j a i u ",
"VXSXDXDXDXFXDXVXvXvXvXdX3X] B 7 3 3 / C.n.J.&X*X]._._._.].&X&X=X=X>X>X>X>X<X<X:X:X:X-X-X-X-X-X-X=X`.).|.=X=X[.=X;XeXNXNXtX<X>X[.P.S.S.S.S.D.S.x.z.D.(.).`.{.{.{.|.|.|.|.|.[.`.).(.(.J.J.G.S.V.v.<.O.X.....z.S.D.J.D.S.b.X.6 o o ; ; & % & 3 d d d d d d j h i i ",
"VXDXDXDXFXFXDXSXSXZXVXnXfX-.N 7 * @ K Z.J.]. X[.[.].(._.].@X&X=X=X;X>X>X>X<X<X:X:X:X:X-X-X-X-X:X-X|.|.=X=X[.`.(.[.=X<X<X>X>X[.L.b.z.b.S.G.G.D.n.x.n.P.).{.{.{.{.|.|.|.|.`.[.`.`.(.I.J.D.S.C.b.z.<.O.O...O.b.S.D.D.M.n.1.H O % % * * % $ & d d d d d d j j h a i ",
"VXDXJXDXJXDXDXSXSXVXVXmXfXr.! 8 1 @ 9 7.'.[.[.[.[.[.(.(.].].&X&X=X=X>X=X=X>X<X<X<X<X-X-X-X-X:X-X-X|.|.|.).G.S.x.x.(.[.[.[.(.J.b.o.( ' x.n.n.n.x.x.M.P.).{.|.{.{.{.{.{.`.`.`.`.(.(.I.J.G.S.b.v.1.<.:.O...:.H.J.G.D.D.z.J O X o % * * & & - d d d d d d j j a a i ",
"VXDXFXFXFXDXSXSXZXnXVXnXjXqX5.V 8 1 & / Q.[.|.|.|.[.(.!._.].@X&X=X=X=X=X;X>X>X:X:X<X-X-X-X-X-X-X-X|.|.U.D.n.D.M.n.J.(.(.(.D.b.+.o.h.k.x.x.x.x.x.n.D.P.U.`.|.|.{.{.{.`.`.`.).(.I.I.J.D.S.C.b.1.1.O.O.O...X.v.b.b.x...0 O o o o % * - - ; d d d d 3 d d j j p a a ",
"SXFXFXFXFXDXDXSXnXvXMXnXvXwX8X0.m 7 * 1 { H.'.'.).P.n.S.!.].].%X&X=X=X;X>X<X<X:X:X-X>X-X:X:X-X-X-X|.|.{.U.P.P.P.(.(.(.(.J.S.x.h.k.x.x.h.h.h.x.M.P.P.P.P.U.U.`.).).`.`.`.`.`.U.I.L.J.S.C.b.v.1.>.:.<.O.} J 6 9 9 4 @ o o X o o $ % - d d d d 3 < - d j j a a a a ",
"DXDXDXDXDXDXSXZXjXwXjXMXjXqXfXi.! z 3 1 4 n /  ...R A  .!.~.].+X%X&X*X;X;X:X:X:X:X:X:X:X:X:X-X$X$X#X#X|.|.)././.(. X X].'.J.D.n.x.x.x.x.x.n.D.P.P.P.P.P.P.I.U.U.U.U.U.(.(.`.U.I.J.D.S.b.v.1.1.O.<.<.X.} w . . X X X X o o o o o o = d d d - - & - d j j a a a a ",
"DXDXDXDXJXDXSXMXwXu.i.jXjXqXvXqX%.v v 7 3 1 , % o o . b T.!.~.].+X%X&X=X=X;X:X=X:X:X:X:X:X:X:X-X$X-X-X=X=X[.(.(.[.>X=X=X=X[.P.D.n.x.x.z.z.b.D.P.P.P.P.P.P.I.I.U.I.I.I.I.I.U.I.J.D.S.V.v.v.1.+.<.1.<.X.} H o . X X X X X X X X X X % y - & $ % = d j j h a a a a ",
"DXDXDXDXDXDXDXZXjXu.=.e.i.i.8XqXe.Q c z M V z * o o o 4 q.!.~.].+X@X@X&X=X;X;X;X;X;X;X;X;X:X:X:X-X-X>X=X[.(.J.J.(.].[. X X X(.J.n.z.z.o.' o.z.S.D.D.G.J.J.L.I.L.L.L.L.J.I.I.I.J.G.S.b.v.v.1.1.1.1.<.X.} P o . X X X X X X X X X X % % $ o o = i h h a a a a a a ",
"DXDXDXDXDXDXDXDXZXvXi.-.=.=.*.*.%.Q ^ ! #.=.^ ^ C m B N ,.!.~.~.+X@X@X@X=X;X;X;X;X;X;X;X$X#X#X=X=X#X[.(.S.b.v.x.b.S.J.(.].].(.D.b.>...( ( T ` +.1.z.b.C.S.C.C.B.V.V.F.J.L.I.L.G.G.V.b.v.v.c.z.1.1.O.X.} I & o X X X X X X . X X o o o # = y i a a p a a a a a a ",
"DXDXDXDXDXDXDXDXDXDXVXgXqXi.8.=.-.e.u.i.qXqXi.8.e.5.*.~ { W.~.!.].+X@X@X&X;X;X;X;X$X#X@X_.L.Q.Q.L.F.C.v.:.| _ ` ` :.v.D.Q.'.(.D.b.>...( L L T ` ` ` } O.<.+.O.O.| | +.S.G.L.J.D.S.b.v.v.c.c.z.1.>.O.X...I < % o o o X X X X % = - y y y i i i i a a a a a i u a ",
"DXDXDXDXDXDXDXDXDXDXSXSXAXVXnXfXwXgXgXnXZXvX8X-.&.[ M 3 9 q.!.~.~.+X+X&X&X*X;X;X;X#XL.C.B.v.B.3.1.O.O.X...( U T _ ..1.H.R.(.(.R.H.S.z.| L S U ` | ` R ( _ R R T T R } c.F.G.D.S.V.b.v.v.c.v.c.1.>.O.X.X.~ 4 * * * * * * - - y y d h i a a i i u a a u i a i i a ",
"DXDXDXDXDXDXDXFXFXDXDXDXDXDXDXVXnXnXVXZXSXVX8X! v v 8 1 1 ;.!.~.].].+X%X@X&X*X;X;X@XF.v.3.<.<.X.} ( } _ R R T ( ..>.b.D.D.J.J.G.D.G.S.o.U L Y _ ...._ T U T R } ( _ X.c.F.G.G.S.b.b.v.v.v.v.1.1.O.X...X./ c 4 d d d d d d d d h h h h h h h h i a a i i i i h h ",
"DXDXDXDXDXDXDXDXDXDXDXDXDXDXDXDXDXJXDXDXAXwX*.v b M q 4 1 ~ T.~._.].+X+X+X&X&X;X;X+XB.1.<.X.| X.} R _ } _ _ _ | x.D.P./.(.).)./.P.D.n.h.` ( ` | ..X...` R ( O.v.c.+.c.V.G.H.F.V.v.v.v.v.c.z.1.1.O.X.X.X./ n c c f f f f k k j j j k k k k j j h h a i h h h h h ",
"DXDXDXDXDXDXDXDXDXDXDXDXDXDXDXJXJXJXSXZXjX5.M b N N M v 9 H q.!.~._.].+X%X%X&X*X;X+XS.c.1.O.| } X...` ....` ' o.k.n.N.P././.P.M.l.k.g.' ' ) ) ) ( ( ( ( ( o.z.V.C.V.C.G.G.F.C.B.v.v.v.v.c.z.1.<.O...X.X./ n 6 c n f k k k k k k k k k k k k j g h h h h h h j j ",
"DXDXDXDXDXDXDXZXVXVXnXnXVXZXSXDXJXSXZXZX8X! b P ! N N N N ! ;.W.!.~.].].+X+X&X&X*X&X_.I.L.G.B.+.o.` ` ( ' ' ' ' g.g.g.g.l.j.g.g.) ) ) ) ) ) ' ' ) ) ) ' o.x.S.J.G.F.F.H.F.S.B.v.v.b.v.c.z.1.1.:.X.X.X.X.~ 2 < f E E F E F F F F k k k k k k j j h h h h j j j j ",
"DXDXDXDXDXAXMXjXwX8X8X8X8XwXnXZXSXZXVXvXi.N 9 v M N ^ [ ^ ! I q.!.~.].].+X+X+X&X*X&X@X@X@X@X`.J.M.k.h.h.k.k.l.j.j.j.j.g.g.g.g.g.j.j.j.l.l.l.l.k.g.h.k.x.S.J.L.L.G.G.F.F.S.V.b.b.v.v.v.z.1.1.1.O.| X.X.X./ 2 < f E W E F F F F F k k k k k j j j h h h h j j j j ",
"FXDXDXDXZXvXwX8Xi.i.i.i.t.i.8XjXMXmXgXwXi.m 1 4 v [ *.&.^ P b { T.!.~.].+X+X+X+X&X&X@X@X&X&X@X@X[.(.D.M.M.N.N.N.Y.Y.Y.Y.N.N.N.Y.Y.Y.Y.N.N.M.n.n.n.n.n.M.G.L.L.G.F.G.F.F.V.b.v.v.v.v.v.z.1.1.O...| X.:.O.R K K W W W W E F F F k k k k k k j j j h h h h h j g j ",
"DXDXDXSXvXwX8Xi.i.i.i.i.t.u.i.8XjXqX8XwXi.m 3 8 c Q [ [ ] P c 9 ,.!.!.~.].].+X+X+X@X@X@X&X@X@X[.[.[.).).)././././.}.}.}.}.Y.Y.Y.}.}.Y.Y.N.P.P.D.D.D.D.D.G.L.G.F.F.F.F.V.v.c.v.v.v.v.z.z.1.1.O.| ..:.:.O._ L W W W W E F F k k k k k k k k j j j h h h h h j g j ",
"DXDXDXVXfX8Xi.i.i.i.i.i.i.t.u.i.8Xi.fXvXi.B 3 1 1 7 M ! ] ~ c , ~ T.!.!.~._.].].+X+X@X@X@X@X@X[.[.|.|.|.|.|.|.|.}.}.}.}././.}./././././.I.I././.I.I.I.J.G.G.F.F.F.F.F.V.c.c.c.v.v.2.1.1.1.O.| | O.:.>.O._ L W W W W E F F k k k k k k j j j j j j h h h j j g g ",
"DXDXDXnXwX^.i.i.i.i.i.i.i.t.u.u.3Xi.jXMXjX-.m 3 1 1 3 8 b v 4 1 P Z.W.W.Q.~.]._.].].+X@X@X@X@X=X=X=X>X>X>X>X=X=X|.[.[.'.)./.(.(.(.(.(.(.(.).(.).(.(.I.L.G.G.F.S.F.C.B.c.c.c.c.c.2.1.1.<.O...| X.1.1.1.O._ L W W W E F k k k k k k j j j j j j h h g g h h g g g ",
"DXFXSXvX8Xr.y.i.i.i.i.i.i.u.u.i.8X3X8XgXMXgXi.-.C v 7 7 4 4 1 & c Z.!.H.W.Q.~.~._._.].+X&X@X@X@X=X=X;X;X;X;X;X=X=X@X[.[.).(.(.(.(.(.(.`.[.`.`.`.(.(.I.J.G.F.F.F.C.B.v.c.c.2.c.2.1.1.+.O...| X.<.1.1.1.O._ W W W W F k j j j j j j j j j j j h h h h h g g g g g ",
"DXFXDXnX4X7.7.r.i.i.i.i.i.t.t.3XgXvXqX5X8X8X3Xu.8.=.%.[ ^ M z * 4 q.~.W.H.W.Q.~.~.!.].+X%X&X@X@X&X=X=X;X;X;X;X;X=X=X#X[.[.`.).).).`.[.`.`.`.`.).(.I.J.J.G.F.F.C.C.B.v.c.2.2.c.2.1.O...| | ..1.2.v.2.1.O._ E E E F k j h h h h h g h h h h h h h h h h h g g g g ",
"VXDXDXVXfXT.2.2.T.^.i.y.y.i.4XfXVXFXDXVXvXvXvXfXwXi.e.5.-.-.*.C m 7.+X~.W.H.H.Q.!.!.].].+X@X@X@X&X=X=X=X$X|.:X:X:X;X>X=X#X=X=X|.|.|.{.`.`.`.`.`.`.I.J.J.F.F.F.C.V.b.c.c.1.2.c.1.O...` } O.1.v.v.v.1.1.O./ E F k k k j h h h h h h h h h h h h h h h h g s s s s ",
"ZXDXDXSXbX0Xm.:.7.E.i.y.i.8XfXVXDXJXJXJXFXDXDXZXjXi.r.e.0.e.0.6.6.r.~.%X+XQ.H.H.W.!.!.].+X&X&X&X&X&X=X;X=X#X=X:X>X:X:X<X<XeXtX<X<X>X>X=X=X$X#X@X`.(.L.J.G.G.F.S.V.b.c.z.1.1.1.+.O.} | O.z.v.b.b.v.z.1.:.W F k k k k h h h h h i h h h h h i i i t t t s s s s s ",
"ZXDXFXSXmXwX^.7.7.E.^.8XfXvXVXDXFXJXFXFXFXFXFXSXjX8Xt.r.r.r.r.r.r.r.!.+X+X%X!.H.H.K.!.!.].&X*X*X&X=X;X;X;X>X:X<X<X<X<X2XNXNX2X2X2X<X<X>X>X-X$X#X`.`.I.J.D.F.F.S.V.b.c.1.1.<.O.X.} | <.v.B.B.V.b.v.z.1.:.W F k k k j g h h h i i i h i i i i u r r r t s s s s s ",
"ZXDXDXVXvXjXiXT.7.r.8XfXVXZXDXFXFXFXJXJXFXFXJXSXvX8Xt.t.r.r.t.t.r.y.!.+X+X%X+X!.K.H.W.Q.].+X*X;X*X;X>X,X<X<X>X<X<X<X2XNX2X2X2X2X2X2X:X-X>X>X=X#X[.`.(.J.J.D.F.S.V.v.1.+.O.O.| } ..<.v.V.C.C.C.b.b.z.1.:.W k k k k j g h h h i i i i i i u r r r r r r t s s s s ",
"ZXDXSXMXvXnXvX^.6.r.8XfXMXSXDXDXDXFXJXJXFXFXJXSXvX8Xt.t.r.y.y.t.y.y.!.].+X%X%X+X].Q.K.W.Q.].&X;X,X,X,X,X>X>X>X>X<X<X2X2X2XNXNXNX2X<X<X>X>X>X=X#X`.(.I.J.D.D.G.S.V.c.1.O.| | | X.1.v.C.C.S.S.C.b.b.z.1.:.W f k k k j g h h h i i i u u r r r r r r r r t t s s s ",
"SXDXZXnXvXVXbX4Xq.y.8XwXvXVXDXDXDXFXJXFXFXJXJXSXvX8Xi.y.t.t.t.t.y.y.!.~.].+X%X%X].].Q.W.W.Q.].*X;X;X>X>X>X>X<X<X<X<X2X2XNXNXNX<X<X<X<X:X>X=X#X|.`.I.J.J.D.G.S.V.v.1.O...| | O.c.b.C.S.H.H.S.C.b.b.v.1.:.Q s j k k j h h i i i u r r r r r r r r r r r r t t s s ",
"ZXDXVXvXnXZXbX9Xy.^.qXwXfXnXZXDXDXDXFXFXFXJXJXSXjX8Xi.y.y.y.y.y.y.y.E.~.].@X%X%X%X+X].~.W.W.Q.+X*X=X;X>X>X>X>X<X<X<X<X<XeX<X<X<X<X<X>X:X=X#X[.[.`.I.J.D.G.S.C.b.1.O.| } ..1.v.b.C.H.H.H.G.S.C.V.b.v.1.:.~ s h j k j h i i i r r r r r r r r r r r e e r t t t s ",
"ZXSXVXvXnXZXbX9X4X8XqXwXfXnXZXSXDXDXFXFXFXFXFXSXjX8Xt.t.y.y.y.y.y.y.E.~.].@X%X%X&X%X%X].~.Q.W.Q.].&X*X;X>X>X>X>X<X2X<X<XeX<X>X;X;X>X>X>X=X|.[.[.(.(.D.S.G.C.b.1.O.| | :.1.b.C.S.H.J.L.J.D.G.S.V.b.v.1.O./ f s g j g h t r r r r r r r r r r r r e r r r r e t t ",
"ZXSXVXvXbXVXjX8X8XqXqXwXfXvXVXSXDXDXDXDXDXDXDXAXjXi.e.0.0.e.e.e.r.r.T.~.].@X%X%X%X%X%X%X%X].Q.W.W.!. X*X*X=X=X=X>X<X<X>X>X>X;X>X>X>X>X#X[.[.`.(.L.J.C.b.C.v.<.X...X.O.v.C.S.S.G.J.L.L.J.D.D.S.V.b.v.1.O.../ f D D D s t r r r r r r r r r r e e e e r r e r r t ",
"ZXDXVXvXvXMXfX8XqXwXqXwXfXvXVXSXDXDXDXDXDXDXDXZXfXe.C C C C C ! ! ] ,.!.].@X%X%X&X&X*X*X&X%X].].!.W.W._.].].[.[.&X=X=X=X|.[.[.[.[.[.[.[.(.(.L.H.F.C.v.1.<.O.X.O.:.<.3.C.F.H.J.J.Q.(.L.J.J.D.S.V.b.v.1.O.X.| ( ) p.G f s t t t t t t s f f s s s s e e e t t t t ",
"VXDXVXvXvXbXwX8XwXfXwXwXwXvXVXZXDXDXDXDXDXDXDXZXfX=.; % % = = = = * ~ W.].+X%X%X*X*X*X*X*X&X%X+X].~.~.W.W.H.J.Q.Q.(.(.(.(.J.J.J.J.R.J.H.S.C.m.b.3.1.O.X.X.O.:.1.v.m.C.H.J.L.(.(.(.(.L.J.J.D.F.S.V.c.1.O.| | | ' g.G D s s s s s s s D G p.G G G Z Z D f f s s s ",
"SXSXZXvXjXjXqX8XfXfXwXwXfXvXVXZXDXDXDXDXDXDXDXAXwX=.; = % % = % % = ! W.].@X%X%X*X*X*X=X*X*X&X%X%X%X%X%X_.Q.H.C.m.m.m.m.v.2.1.2.2.2.2.<.:.:.:.:.:.:.:.<.2.3.v.B.H.J.J.J.Q.(.(.(.(.I.I.J.L.G.F.F.b.c.1.O.o.......' ) W f s s s s s f G a.s.a.a.a.a.a.a.p.p.G G G ",
"ZXDXZXvXfXwX4X9XgXfXwXwXwXvXVXVXSXDXDXDXDXDXDXZXgXu.=.%.%.%.%.C B ; P W.].[.@X&X&X&X=X;X;X*X*X&X&X%X%X%X%X%X%X+XQ.W.W.H.Z.Z.m.3.2.2.1.1.1.2.2.3.v.b.m.B.C.C.C.H.L.(.(.(.(.(.(.(.(.I.I.I.J.J.D.S.V.c.+.+.O.o...o.O..._ W f s s s s D a.d.d.s.a.a.a.a.s.s.s.s.s.s.",
"SXDXSXnXfX8X^.9XgXwXqXwXfXvXVXZXSXSXSXDXDXDXDXZXvXwX9X9X9X^.e.! 3 * { !.].+X@X&X&X&X=X;X;X=X*X*X&X%X%X&X%X%X&X*X*X*X*X&X%X%X]._.Q.K.H.H.Z.C.C.C.S.H.H.S.H.H.L.(.(.(.`.[.[.[.[.`.(.(.(.(.L.J.G.S.V.c.z.1.O.o.o.O.O.O...| / E f f D G s.d.f.d.d.a.a.s.s.s.s.s.d.d.",
"SXDXDXVXfXi.r.qXfXwXqXqXfXvXVXSXSXDXDXDXFXFXJXAXjX8Xy.r.0.%.x * % N q.!._.].@X&X&X*X=X;X;X;X*X*X&X&X&X&X%X%X%X&X*X;X;X;X=X=X&X%X]._.Q.W.J.H.H.H.H.H.J.J.J.Q.(.`.`.[.[.[.@X[.[.[.`.`.`._.L.L.D.S.S.b.c.+.O.| o.O.o.o.O.X.o.| R L D G p.a.f.f.f.d.s.s.s.s.s.d.d.d.",
"SXDXDXZXjX^.r.9XwXqX8XqXfXvXVXSXDXDXDXFXDXZXnX8X=.v 7 ; ; = = % * { H.!._.].@X@X&X=X=X=X;X;X;X*X*X&X&X&X&X%X&X&X*X*X*X=X=X&X&X X[.].(.Q.L.L.L.L.L.L.L.L.(.(.'.[.[.[.@X@X@X[.[.[.[.`.`.U.I.L.G.F.S.V.x.z.o.| X.o.+.+.+.+.o.o.} U 6 , > > G s.f.f.d.s.s.d.d.d.d.d.",
"SXDXDXSXnXqX^.4X9X8X8XqXfXnXZXSXDXZXvXqXi.=.C x % o % = % % % % * { K.!._.+X@X&X&X&X;X;X;X>X>X;X;X*X*X&X&X&X&X&X&X%X%X%X%X X[.].].].(.Q.Q.Q.Q.Q.Q.Q.L.L.(.`.[.&X=X=X@X|.[.[.[.[.[.`.`.(.I.L.J.G.S.V.x.z.+.o.o.+.z.z.z.+.O.T 9 @ o X X X O 6 G d.f.d.d.d.d.d.d.d.",
"VXZXZXZXVXwX^.i.^.4X8XqXgXnXnXgX5X-.B ; = % % o X X % % % % % % * { W.].].+X@X&X&X=X;X;X;X;X,X,X,X;X*X*X*X&X%X%X%X%X[.].].].].]._.(.(.(.(.!.Q.Q.Q.Q.Q.(.].@X=X=X=X#X#X#X#X|.[.`.[.`.`.(.I.I.J.D.S.V.b.c.+.o.o.h.z.z.+.} H , X X X X X X X X O Z G a.s.s.d.d.d.d.",
"vXvXvXvXvXwX^.e.e.i.i.i.i.u.=.B ; X X o o % % X X X X % % % % % & ~ W.].].+X@X&X&X;X;X;X;X,X,X,X,X,X;X*X*X*X&X%X X[.[.].].].].].]._._._.'.(.(.(.(.(.].[.@X=X=X=X#X=X#X=X#X@X[.`.[.`.`.(.U.I.J.D.S.S.V.b.+.o.o.1.1.+.R 2 o X X X X X X X X X X X O 5 Z Z Z G a.d.",
"wXwXwXwXqX8X^.e.5.=.C x 7 ; % X X X X X X X X X X X X o % % % = % I W._.].+X@X@X&X=X;X;X>X<X,X<X<X,X,X;X*X&X&X&X%X%X X[.[.[.[.@X].].].].].(.(.(.(.[.[.[.@X=X=X#X=X=X=X#X#X#X#X[.[.`.`.(.U.I.J.G.D.S.S.V.z.o.o.+.} w @ X X X X X X X X X X X X X X X X X o > Z p.",
"8X8X8X8X^.y.y.6.C ; X X X X X X X X X X X X X X X X X X % % % = % N T.!.].+X@X@X&X=X;X;X,X,X,X<X<X,X,X;X;X*X*X*X*X&X%X&X%X%X%X%X%X[.[.].].].].].].[.&X&X=X;X;X=X=X=X=X#X#X#X|.[.`.`.`.`.U.I.L.G.G.F.S.V.c.O.} J 1 o X X X X X X X X X X X X X X X X X X X X o > ",
"i.i.t.e.-.[ B z % X X X X X X X X X X X X X X X X X X X o % % % % 8 7.!.].+X@X@X@X=X=X;X;X,X,X<X<X<X<X,X;X;X;X*X=X*X*X=X&X&X&X%X&X%X[.[.[.[.[.@X%X&X*X=X>X>X;X;X>X=X$X#X#X#X#X|.`.`.`.(.U.I.L.L.G.G.F.V.2.{ 8 + X X X X X X X X X X X X X X X X X X X X X X X X ",
"e.=.C x * % X X X X X X X X X X X X X X X X X X X X X X X X % % % % N Z.].+X@X@X@X#X=X;X;X,X,X<X<X<X<X<X,X,X,X;X;X;X;X;X=X*X&X&X*X=X&X&X=X&X&X*X=X;X;X>X>X;X;X:X;X;X=X#X#X#X#X[.`.`.`.(.(.I.I.L.L.K.F.3.I , X X X X X X X X X X X X X X X X X X X X X X X X X X ",
"; % X X o X X X X X X X X X X X X X X X X X X X X X X X X % % % % % % ~ K.+X@X@X&X=X=X;X;X<X<X<X<X<X1X<X,X,X,X,X,X,X,X>X>X;X=X=X=X=X=X=X>X=X*X>X>X>X>X>X>X;X;X;X>X;X=X=X=X#X|.`.`.`.`.`.`.`._.Q.L.Z.{ 8 o X X X X X X X X X X X X X X X X X X X   X X X X X X X ",
"X X X o X X X X X X X X X X X X X X X X X X X X X X X X X % % % % % o & I Z.].&X&X&X;X;X;X;X>X<X<X<X<X<X,X,X<X<X<X<XeX<X<X<X>X;X>X>X>X>X>X>X*X>X;X;X;X<X<X<X<X<X<X:X=X=X=X#X#X[.[.[.[.[.].].Q.Z. .b @ X X X X X X X X X X X X X X X X X X X X X X   X X X X X X ",
"X X X X X X X X X X X X X X X X X X X X X X X X X X X X X X % % % + X X % n 3.!.&X&X;X;X;X;X<X<X<X<X<X<X<X<X<X<X<X<X<X<X<X<X>X;X>X>X>X>X=X=X=X;X>X>X<X<X<X<X<X<X<X:X=X=X=X=X=X@X[.[.[.].Q.9.{ 8 + X X X X X X X X X X X X X X X X X X X X X X X X X X X X X X X ",
"X X X X X X X X X X X X X X X X X X X X X X X X X X X X X X % % % X X X % % 3 ~ Z.+X*X;X>X<X<X1X1X1X1X1X1X1X<X<X<X<X,X;X>X>X>X>X>X>X;X=X;X;X>X,X<X<X<X<X<X<X<X<X>X:X;X=X=X=X=X@X[.(.Z.;.K 1 o X X X X X X X X X X X X X X X X X X X X X X X X X X X X X X X X X ",
"X X X X X X X X X X X X X X X X X X X X X X X X X X X X X X X % X X X X % % o % 7 { Z.].;X,X<X1X1XtX1X1X1XtX1X<X<X<X<X,X;X;X>X>X>X>X;X;X>X<X<X<X<X<X<X<X<X<X:X<X>X;X;X=X=X@X_.Z.;.P 4 o X X X X X X X X X X X X X X X X X X X X X X X X X X X X X X X X X X X X ",
"X X X X X X X X X X X X X X X X X X X X X X X X X X X X X X X X X X X X o X X X X + 3 I ,.W.*X,X1XtXtXtXtXtX1X1X<X<X<X<X,X<X,X>X>X,X,X<X<X<X<XeXtXeX<X<X<X<X<X,X,X;X@X!.B. .M 3 + X X X X X X X X X X X X X X X X X X X X X X X X X X X X X X X X X X X X X X X ",
"X X X X X X X X X X X X X X X X X X X X X X X X X X X X X X X X X X X % X X X X X X X X & v { Z.~.*XtXtXtXtXtXtXtX<X<X<X>X,X,X,X<X<X<X,XeXtXeXeXtXtXtX<X<X;X].!.W.3.{ n 1 o X X X X X X X X X X X X X X X X X X X X X X X X X X X X X X X X X X X X X X X X X X "
};
