/* XPM */
static char *c98480d699ae4566b367245ac73e23bcvvcqPKBx5rFKkjeI[] = {
/* columns rows colors chars-per-pixel */
"32 32 3 1 ",
"  c black",
". c gray45",
"X c red",
/* pixels */
"     .....       ........   ....",
"....   ..  .....   ........   ..",
"......    ........  .........  .",
".......  .......... ......... ..",
"....... ........       .....    ",
"          ....   .....        . ",
".. ......      .........   .....",
".. X......... ........... ......",
"..XXX.......   .X........ ..X...",
"..XXX .....    XX........ ..XX..",
"   XXX   .     XXX         XX...",
"...XXX .  ....XXXX ...   . XX   ",
"...XXX.   ....XXXXX.  .....XX   ",
"  ..XXX .   ..XX.XX ......XX.  .",
".   XXX....  XX..XX.......XX.  .",
"    XXX......XX  XXX.....XXX.. .",
".....XXX....XXX...XX.....XX... .",
".....XXX....XX ...XX.....XX.. ..",
"......XX    XX....XX    XX     .",
"....  XX   XXX.   XX    XX ...  ",
".     XX...XX   ..XXX..XXX......",
"  ..  XXX..XX. ....XX..XX ......",
".... .XXX..XX.  ...XX..XX  .....",
"      .XX.XX...    XX.XX..      ",
"....   XXXXX... .. XXXXX  ..    ",
"......  XXX     ...XXXX..    ...",
"....... XX.        XXXX...  ....",
"........    ....... X.....   ...",
"........   .........       .   .",
"            .......  .       .  ",
".....                  ...... ..",
".......    ......... ........  ."
};
