/* XPM */
static char *f4474ff6d503456998bbcd28626968e6mNgpJAfBrOSCVfQq[] = {
/* columns rows colors chars-per-pixel */
"32 32 3 1 ",
"  c black",
". c gray45",
"X c red",
/* pixels */
"     .....       ........   ....",
"....   ..  .....   ........   ..",
"......    ........  .........  .",
".......  .......... ......... ..",
"....... ......XXXX     .....    ",
"          .XXXXXXXXX..        . ",
".. ...... XXXX .XXXXXX..   .....",
".. .....XXX.. ......XXX.. ......",
"..   ...XXX.   ......XX.. ......",
"....  ..XX.     ......... ......",
"        XX                   ...",
"...... .XX........ ...   .      ",
"....... XX........ .  ......    ",
"  ....  .XX ......  .........  .",
".      ..XXX   ..  ..........  .",
"       ...XXX      ........... .",
"...... ....XXXXX.. ........... .",
"......  .....XXXXX  ......... ..",
"......        .XXXX            .",
"....        ...  XXX    .  ...  ",
".     .....     ..XXX..   ......",
"  ..  ........ ....XX...  ......",
".... .........  ...XX..    .....",
"      .........    XX.  ..      ",
"....   ........ ..XXX     ..    ",
"......          .XXX.....    ...",
".......  ..  XXXXXX ......  ....",
"........XXXXXXXXXX.  .....   ...",
"........XXXXXX......       .   .",
"            .......  .       .  ",
".....                  ...... ..",
".......    ......... ........  ."
};
