/* XPM */
static char *cec42040e89444beefb33caf9b0c2962WoIVaQGaLNh1bsCL[] = {
/* columns rows colors chars-per-pixel */
"32 32 3 1 ",
"  c black",
". c gray45",
"X c red",
/* pixels */
"     .....       ........   ....",
"....   ..  .....   ........   ..",
"......    ........  .........  .",
".......  .......... ......... ..",
"....... ........       .....    ",
"          XXXXXXXXXXXXXXX     . ",
".. ...... XXXXXXXXXXXXXXX  .....",
".. .......XX. ........... ......",
"..   .....XX   .......... ......",
"....  ....XX    ......... ......",
"         .XX                 ...",
"...... .  XX...... ...   .      ",
".......   XX...... .  ......    ",
"  ....  . XX......  .........  .",
".      ...XXXXXXXXXXXXX......  .",
"       ...XXXXXXXXXXXXX....... .",
"...... ...XX.. ... ........... .",
"......  ..XX.  ...  ......... ..",
"......    XX  .....            .",
"....      XX...         .  ...  ",
".     ....XX    .......   ......",
"  ..  ....XX.. .........  ......",
".... .....XX..  .......    .....",
"      ....XX...    ...  ..      ",
"....   ...XXXXXXXXXXXXXX  ..    ",
"......    XXXXXXXXXXXXXX.    ...",
".......  ..         ......  ....",
"........    .......  .....   ...",
"........   .........       .   .",
"            .......  .       .  ",
".....                  ...... ..",
".......    ......... ........  ."
};
