/* XPM */
static char *_860b0df74424e28abb2fdab92dcbb30yJKlowTj2yIYjCqw[] = {
/* columns rows colors chars-per-pixel */
"32 32 3 1 ",
"  c black",
". c gray45",
"X c #D90D0D",
/* pixels */
"     .....       ........   ....",
"....   ..  .....   ........   ..",
"......    ........  .........  .",
".......  .......... ......... ..",
"....... ........       .....    ",
"          ....   .....        . ",
".. ...... XX   ...XX....   .....",
".. .......XX. ....XX..... ......",
"..   .....XXX  ...XX..... ......",
"....  ....XXX   ..XX..... ......",
"         .XXX.    XX         ...",
"...... .  XXXX....XX..   .      ",
".......   XXXX....XX  ......    ",
"  ....  . XXXXX...XX.........  .",
".      ...XXXXX.. XX.........  .",
"       ...XX.XXX  XX.......... .",
"...... ...XX.XXX..XX.......... .",
"......  ..XX. XXX.XX......... ..",
"......    XX  XXX.XX           .",
"....      XX...XXXXX    .  ...  ",
".     ....XX   XXXXX...   ......",
"  ..  ....XX.. .XXXX....  ......",
".... .....XX..  XXXX...    .....",
"      ....XX...  XXX..  ..      ",
"....   ...XX... ..XX      ..    ",
"......    XX    ..XX.....    ...",
".......  ..         ......  ....",
"........    .......  .....   ...",
"........   .........       .   .",
"            .......  .       .  ",
".....                  ...... ..",
".......    ......... ........  ."
};
